communes/5498.svg

<?xml version="1.0" encoding="UTF-8"?>
<svg version="1.0" viewBox="0 0 603 763" xmlns="http://www.w3.org/2000/svg" xmlns:cc="http://creativecommons.org/ns#" xmlns:dc="http://purl.org/dc/elements/1.1/" xmlns:rdf="http://www.w3.org/1999/02/22-rdf-syntax-ns#" xmlns:xlink="http://www.w3.org/1999/xlink">
<metadata>
<rdf:RDF>
<cc:Work rdf:about="">
<dc:format>image/svg+xml</dc:format>
<dc:type rdf:resource="http://purl.org/dc/dcmitype/StillImage"/>
<dc:date>07-AUG-2006</dc:date>
<dc:creator>
<cc:Agent>
<dc:title>Jérôme BLUM (wagner51)</dc:title>
</cc:Agent>
</dc:creator>
<cc:license rdf:resource="http://creativecommons.org/licenses/GPL/2.0/"/>
<dc:coverage/>
<dc:description>Gabarit pour le Projet:Blasons de WIkipédia</dc:description>
<dc:subject>
<rdf:Bag>
<rdf:li>blason suisse modèle gabarit projet blasons</rdf:li>
</rdf:Bag>
</dc:subject>
<dc:language>fr</dc:language>
<dc:title>Gabrit d'un blason suisse</dc:title>
</cc:Work>
<cc:License rdf:about="http://creativecommons.org/licenses/GPL/2.0/">
<cc:permits rdf:resource="http://web.resource.org/cc/Reproduction"/>
<cc:permits rdf:resource="http://web.resource.org/cc/Distribution"/>
<cc:requires rdf:resource="http://web.resource.org/cc/Notice"/>
<cc:permits rdf:resource="http://web.resource.org/cc/DerivativeWorks"/>
<cc:requires rdf:resource="http://web.resource.org/cc/ShareAlike"/>
<cc:requires rdf:resource="http://web.resource.org/cc/SourceCode"/>
</cc:License>
</rdf:RDF>
</metadata>
<defs>
<radialGradient id="a" cx="858.04" cy="579.93" r="300" gradientTransform="matrix(1.215 1.5316e-24 1.4647e-23 1.2667 -839.19 -490.49)" gradientUnits="userSpaceOnUse">
<stop stop-color="#fff" stop-opacity=".31373" offset="0"/>
<stop stop-color="#fff" stop-opacity=".25098" offset=".19"/>
<stop stop-color="#6b6b6b" stop-opacity=".12549" offset=".6"/>
<stop stop-opacity=".12549" offset="1"/>
</radialGradient>
</defs>
<desc>Coat of Arms of Canton of Freiburg (Fribourg)</desc>
<g>
<path d="m1.5 1.5v458.87c0 166.31 134.31 301.13 300 301.13 165.69 0 300-134.82 300-301.13v-458.87h-600z" fill="#fcef3c"/>
<path d="m1.5 1.5v458.87c0 166.31 134.31 301.13 300 301.13v-760h-300v-1e-3z" fill="#e20909"/>
</g>
<g stroke="#000" stroke-width="3">
<line x1="301.5" x2="301.5" y1="761.5" y2="1.5" fill="none"/>
<path d="m314.44 125.51c65.833 0 98.736 57.578 105.48 88.383 6.845 31.28 15.959 76.755 19.527 85.024v-1e-3c3.271 9.367 12.181 16.09 22.663 16.09 13.257 0 24.005-10.748 24.005-24.005 0-13.258-10.748-24.005-24.005-24.005-1.747 0-3.45 0.192-5.092 0.547v-151.85c0-19.283-13.696-23.471-23.277-23.471s-17.652 7.902-17.652 17.65c0 9.75 7.902 17.652 17.652 17.652 0 5.262-0.659 12.491-9.049 12.491-16.503 0-42.236-43.236-111.7-43.236-75.29 0-159.67 54.557-159.67 138.21 0 59.532 20.391 98.833 77.94 130.82l-0.017-2e-3c17.642 11.126 29.099 23.129 30.735 40.86 0 0 27.512-15.258 51.839-6.88l-7e-3 -4e-3c2.248 0.72 4.513 1.439 6.817 2.156 66.561 20.732 92.384 58.557 92.384 114.93s-40.01 89.11-102.57 89.11c-62.559 0-111.84-45.086-125.48-151.67-7.637-59.649-5.763-73.224-25.278-86.928-5.028-3.531-9.873-4.824-14.292-4.807-14.661 0-26.819 11.392-26.819 22.992 0 9.75 7.902 17.652 17.651 17.652 3.709 0 7.148-1.149 9.989-3.104l2e-3 3e-3v197.13c0 9.748 7.902 17.651 17.651 17.651 9.748 0 17.651-7.903 17.651-17.651 0-4.698-1.847-8.954-4.838-12.117l2e-3 -0.019c-4.125-4.125-6.836-10.21-3.358-13.688 3.478-3.479 10.667-0.69 18.208 5.047 33.894 25.778 58.444 66.423 120.64 66.423 68.834 0 163.26-51.465 163.26-183.45 0-75.898-53.817-107.23-106.76-123.55h6e-3c-18.13-6.239-30.589-36.528-30.589-36.528s-30.018 25.177-60.386 14.109c-43.926-16.76-54.185-56.158-54.185-85.034 3e-3 -31.277 25.1-102.93 90.932-102.93z" fill="#fff" stroke-linecap="round" stroke-linejoin="round"/>
</g>
<g>
<path d="m1.5 1.5v458.87c0 166.31 134.31 301.13 300 301.13 165.69 0 300-134.82 300-301.13v-458.87h-600z" fill="url(#a)"/>
<path d="m1.5 1.5v458.87c0 166.31 134.31 301.13 300 301.13 165.69 0 300-134.82 300-301.13v-458.87h-600z" fill="none" stroke="#000" stroke-width="3"/>
</g>
</svg>

<?xml version="1.0" encoding="UTF-8" standalone="no"?>
<svg
   xmlns:dc="http://purl.org/dc/elements/1.1/"
   xmlns:cc="http://creativecommons.org/ns#"
   xmlns:rdf="http://www.w3.org/1999/02/22-rdf-syntax-ns#"
   xmlns:svg="http://www.w3.org/2000/svg"
   xmlns="http://www.w3.org/2000/svg"
   xmlns:xlink="http://www.w3.org/1999/xlink"
   xmlns:sodipodi="http://sodipodi.sourceforge.net/DTD/sodipodi-0.dtd"
   xmlns:inkscape="http://www.inkscape.org/namespaces/inkscape"
   height="763"
   width="603"
   version="1.0"
   id="svg20"
   sodipodi:version="0.32"
   inkscape:version="0.46"
   sodipodi:docname="La_Sarraz-coat_of_arms.svg"
   sodipodi:docbase="C:\Documents and Settings\Steve\Bureau\Blason Villages Suisse pour Wikipédia (par Delta-9)"
   inkscape:output_extension="org.inkscape.output.svg.inkscape">
  <metadata
     id="metadata31">
    <rdf:RDF>
      <cc:Work
         rdf:about="">
        <dc:format>image/svg+xml</dc:format>
        <dc:type
           rdf:resource="http://purl.org/dc/dcmitype/StillImage" />
        <dc:date>07-AUG-2006</dc:date>
        <dc:creator>
          <cc:Agent>
            <dc:title>Jérôme BLUM (wagner51)</dc:title>
          </cc:Agent>
        </dc:creator>
        <cc:license
           rdf:resource="http://creativecommons.org/licenses/GPL/2.0/" />
        <dc:coverage />
        <dc:description>Gabarit pour le Projet:Blasons de WIkipédia</dc:description>
        <dc:subject>
          <rdf:Bag>
            <rdf:li>blason suisse modèle gabarit projet blasons</rdf:li>
          </rdf:Bag>
        </dc:subject>
        <dc:language>fr</dc:language>
        <dc:title>Gabrit d'un blason suisse</dc:title>
      </cc:Work>
      <cc:License
         rdf:about="http://creativecommons.org/licenses/GPL/2.0/">
        <cc:permits
           rdf:resource="http://web.resource.org/cc/Reproduction" />
        <cc:permits
           rdf:resource="http://web.resource.org/cc/Distribution" />
        <cc:requires
           rdf:resource="http://web.resource.org/cc/Notice" />
        <cc:permits
           rdf:resource="http://web.resource.org/cc/DerivativeWorks" />
        <cc:requires
           rdf:resource="http://web.resource.org/cc/ShareAlike" />
        <cc:requires
           rdf:resource="http://web.resource.org/cc/SourceCode" />
      </cc:License>
    </rdf:RDF>
  </metadata>
  <defs
     id="defs29"><inkscape:perspective
   sodipodi:type="inkscape:persp3d"
   inkscape:vp_x="0 : 381.5 : 1"
   inkscape:vp_y="0 : 1000 : 0"
   inkscape:vp_z="603 : 381.5 : 1"
   inkscape:persp3d-origin="301.5 : 254.33333 : 1"
   id="perspective28" />
<linearGradient
   id="linearGradient2893">
  <stop
     style="stop-color:#ffffff;stop-opacity:0.3137255;"
     offset="0"
     id="stop2895" />
  <stop
     id="stop2897"
     offset="0.19"
     style="stop-color:#ffffff;stop-opacity:0.25098041;" />
  <stop
     style="stop-color:#6b6b6b;stop-opacity:0.1254902;"
     offset="0.60000002"
     id="stop2901" />
  <stop
     style="stop-color:#000000;stop-opacity:0.1254902;"
     offset="1"
     id="stop2899" />
</linearGradient>
<linearGradient
   id="linearGradient2955">
  <stop
     style="stop-color:white;stop-opacity:0;"
     offset="0"
     id="stop2965" />
  <stop
     style="stop-color:black;stop-opacity:0.64583331;"
     offset="1"
     id="stop2959" />
</linearGradient>
<radialGradient
   inkscape:collect="always"
   xlink:href="#linearGradient2893"
   id="radialGradient3236"
   gradientUnits="userSpaceOnUse"
   gradientTransform="matrix(1.215027,1.531577e-24,1.464684e-23,1.266667,-839.1924,-490.4894)"
   cx="858.04236"
   cy="579.93323"
   fx="858.04236"
   fy="579.93323"
   r="300" />
<inkscape:perspective
   id="perspective2468"
   inkscape:persp3d-origin="297.63751 : 280.63 : 1"
   inkscape:vp_z="595.27502 : 420.94501 : 1"
   inkscape:vp_y="0 : 1000 : 0"
   inkscape:vp_x="0 : 420.94501 : 1"
   sodipodi:type="inkscape:persp3d" />

	

	
	
</defs>
  <sodipodi:namedview
     inkscape:window-height="968"
     inkscape:window-width="1280"
     inkscape:pageshadow="2"
     inkscape:pageopacity="0.0"
     guidetolerance="10.0"
     gridtolerance="10.0"
     objecttolerance="10.0"
     borderopacity="1.0"
     bordercolor="#666666"
     pagecolor="#ffffff"
     id="base"
     inkscape:zoom="0.95380146"
     inkscape:cx="186.55155"
     inkscape:cy="379.04932"
     inkscape:window-x="1280"
     inkscape:window-y="22"
     inkscape:current-layer="layer2"
     showgrid="false"
     showguides="true"
     inkscape:guide-bbox="true">
    <sodipodi:guide
       orientation="horizontal"
       position="761.5"
       id="guide1885" />
    <sodipodi:guide
       orientation="vertical"
       position="1.5"
       id="guide1887" />
    <sodipodi:guide
       orientation="horizontal"
       position="1.5"
       id="guide1889" />
    <sodipodi:guide
       orientation="vertical"
       position="601.5"
       id="guide1891" />
    <sodipodi:guide
       orientation="vertical"
       position="301.50081"
       id="guide1893" />
  </sodipodi:namedview>
  <desc
     id="desc22">Coat of Arms of Canton of Freiburg (Fribourg)</desc>
  <g
     inkscape:groupmode="layer"
     id="layer1"
     inkscape:label="Fond écu"
     style="opacity:1"
     sodipodi:insensitive="true">
    <path
       d="M 1.5,1.5 L 1.5,460.37 C 1.5,626.681 135.814,761.501 301.5,761.501 C 467.188,761.501 601.5,626.681 601.5,460.37 L 601.5,1.5 L 1.5,1.5 z"
       id="path2507"
       style="opacity:1;fill:#fcef3c" />
    <path
       d="M 1.5,1.5 L 1.5,460.37 C 1.5,626.681 135.814,761.501 301.5,761.501 L 301.5,1.501 L 1.5,1.501 L 1.5,1.5 z"
       id="path2483"
       style="opacity:1;fill:#e20909" />
  </g>
  <g
     inkscape:groupmode="layer"
     id="layer2"
     inkscape:label="Meubles"
     style="opacity:1;display:inline"
     sodipodi:insensitive="true">
    <line
       y2="1.5"
       x2="301.49698"
       y1="761.49805"
       x1="301.49698"
       id="line2487"
       style="fill:none;stroke:#000000;stroke-width:3" />
    <path
       style="fill:#ffffff;stroke:#000000;stroke-width:3;stroke-linecap:round;stroke-linejoin:round"
       d="M 314.441,125.513 C 380.274,125.513 413.177,183.091 419.919,213.896 C 426.764,245.176 435.878,290.651 439.446,298.92 L 439.446,298.919 C 442.717,308.286 451.627,315.009 462.109,315.009 C 475.366,315.009 486.114,304.261 486.114,291.004 C 486.114,277.746 475.366,266.999 462.109,266.999 C 460.362,266.999 458.659,267.191 457.017,267.546 L 457.017,115.693 C 457.017,96.41 443.321,92.222 433.74,92.222 C 424.159,92.222 416.088,100.124 416.088,109.872 C 416.088,119.622 423.99,127.524 433.74,127.524 C 433.74,132.786 433.081,140.015 424.691,140.015 C 408.188,140.015 382.455,96.779 312.986,96.779 C 237.696,96.779 153.315,151.336 153.315,234.991 C 153.315,294.523 173.706,333.824 231.255,365.806 L 231.238,365.804 C 248.88,376.93 260.337,388.933 261.973,406.664 C 261.973,406.664 289.485,391.406 313.812,399.784 L 313.805,399.78 C 316.053,400.5 318.318,401.219 320.622,401.936 C 387.183,422.668 413.006,460.493 413.006,516.87 C 413.006,573.247 372.996,605.98 310.439,605.98 C 247.88,605.98 198.603,560.894 184.956,454.31 C 177.319,394.661 179.193,381.086 159.678,367.382 C 154.65,363.851 149.805,362.558 145.386,362.575 C 130.725,362.575 118.567,373.967 118.567,385.567 C 118.567,395.317 126.469,403.219 136.218,403.219 C 139.927,403.219 143.366,402.07 146.207,400.115 L 146.209,400.118 L 146.209,597.25 C 146.209,606.998 154.111,614.901 163.86,614.901 C 173.608,614.901 181.511,606.998 181.511,597.25 C 181.511,592.552 179.664,588.296 176.673,585.133 L 176.675,585.114 C 172.55,580.989 169.839,574.904 173.317,571.426 C 176.795,567.947 183.984,570.736 191.525,576.473 C 225.419,602.251 249.969,642.896 312.166,642.896 C 381,642.896 475.428,591.431 475.428,459.447 C 475.428,383.549 421.611,352.221 368.663,335.895 L 368.669,335.895 C 350.539,329.656 338.08,299.367 338.08,299.367 C 338.08,299.367 308.062,324.544 277.694,313.476 C 233.768,296.716 223.509,257.318 223.509,228.442 C 223.512,197.165 248.609,125.513 314.441,125.513 z"
       id="path2461" />
  </g>
  <g
     inkscape:groupmode="layer"
     id="layer3"
     inkscape:label="Reflet final"
     style="display:inline"
     sodipodi:insensitive="true">
    <path
       style="fill:url(#radialGradient3236);fill-opacity:1"
       d="M 1.5,1.5 L 1.5,460.3679 C 1.5,626.67854 135.81454,761.5 301.49993,761.5 C 467.1854,761.5 601.5,626.67854 601.5,460.3679 L 601.5,1.5 L 1.5,1.5 z "
       id="path2346" />
  </g>
  <g
     inkscape:groupmode="layer"
     id="layer4"
     inkscape:label="Contour final"
     style="display:inline"
     sodipodi:insensitive="true">
    <path
       style="fill:none;fill-opacity:1;stroke:#000000;stroke-width:3;stroke-miterlimit:4;stroke-dasharray:none;stroke-opacity:1"
       d="M 1.5,1.5 L 1.5,460.36794 C 1.5,626.67854 135.81454,761.5 301.49993,761.5 C 467.1854,761.5 601.5,626.67854 601.5,460.36794 L 601.5,1.5 L 1.5,1.5 z "
       id="path3239" />
  </g>
</svg>
